X: 27401
T: Modul 1
R: reel
M: 4/4
K: Bminor
|:B2 BA BFAB|dBef feef|d2 BF ABde|dBBA B4:|
|:f2 ed aBde|fBef feef|d2 BF ABde|dBBA B4:|
e2-e2 e2-ed|eBef feef|d2 BF ABdB|f2 ed f3 d|
|:e2-eafB e2-|ebaf feef|d2 BF ABdB|f2 ed f3 d:|
e2 ea aaef|ab f2 e2fB|de e2 affe|ed f2 dFAd||

